X:10016
T:Jockey to the Fair
R:Jig
C:Trad. Morris
O:England, Brackley
Z:Paul Hardy's Session Tunebook 2015 (see www.paulhardy.net). Creative Commons cc by-nc-sa licenced.
M:6/8
L:1/8
Q:3/8=100
K:G
D|"G"G2A B2c|d2g d2c|BdB GFG|"D7"c2B A2A|"G"d2d "Em"efg|"D"a2f d2g|fed "A7"AB^c|"D"d3 d2:|
|:d|"G"g2d g2d|"D7"cdc "G"B2d|g2d g2d|"D7"cdc "G"B2d|"C"e2f "G"gfg|"C"edc "G"B2d|
"C"edc "D"B2A|"G"G2F "Em"E2D|"G"G2G GBd|"Em"e2f "G"g2D|G2B "D7"dcA|"G"G3 G2:|

